www/assets/icons/downhill_skiing.svg

<svg xmlns="http://www.w3.org/2000/svg" width="24" height="24" viewBox="0 0 24 24" fill='currentColor'><path d="M18.5 3.75c0 1.1-.9 2-2 2s-2-.9-2-2 .9-2 2-2 2 .9 2 2m-2.72 16.4.76.27a5.93 5.93 0 0 0 4.34-.17L22 21.38c-1.05.55-2.24.87-3.5.87-.86 0-1.68-.14-2.45-.41L2 16.72l.5-1.41 6.9 2.51 1.72-4.44-3.57-3.73c-.89-.94-.67-2.47.45-3.12l3.48-2.01c1.1-.64 2.52-.1 2.91 1.11l.33 1.08a5.02 5.02 0 0 0 2.83 3.14l.52-1.6 1.43.46-1.12 3.45A7.03 7.03 0 0 1 13 7.84l-2.53 1.45 3.03 3.46-2.22 5.76 3.09 1.12 2.1-6.44c.46.18.94.31 1.44.41z"/></svg>

<svg width="24" height="24" viewBox="0 0 24 24" xmlns="http://www.w3.org/2000/svg" fill='currentColor'><path d="M18.5 3.75C18.5 4.85 17.6 5.75 16.5 5.75C15.4 5.75 14.5 4.85 14.5 3.75C14.5 2.65 15.4 1.75 16.5 1.75C17.6 1.75 18.5 2.65 18.5 3.75ZM15.78 20.15L16.54 20.42C17.16 20.63 17.81 20.75 18.5 20.75C19.34 20.75 20.15 20.57 20.88 20.25L22 21.38C20.95 21.93 19.76 22.25 18.5 22.25C17.64 22.25 16.82 22.11 16.05 21.84L2 16.72L2.5 15.31L9.4 17.82L11.12 13.38L7.55 9.65C6.66 8.71 6.88 7.18 8 6.53L11.48 4.52C12.58 3.88 14 4.42 14.39 5.63L14.72 6.71C15.16 8.13 16.2 9.28 17.55 9.85L18.07 8.25L19.5 8.71L18.38 12.16C15.93 11.76 13.9 10.09 13 7.84L10.47 9.29L13.5 12.75L11.28 18.51L14.37 19.63L16.47 13.19C16.93 13.37 17.41 13.5 17.91 13.6L15.78 20.15Z"/></svg>
